symbolic/48x48/apps/openshot-qt.svg

<svg xmlns="http://www.w3.org/2000/svg" width="48" height="48" version="1.1">
 <path style="opacity:0.2" d="M 24,5 A 20,20 0 0 0 4,25 20,20 0 0 0 24,45 20,20 0 0 0 44,25 20,20 0 0 0 24,5 Z"/>
 <path style="fill:#3168b2" d="M 24,4 C 12.954305,4 4,12.954305 4,24 c 0,8.598343 5.4259448,15.92939 13.040602,18.755906 2.167364,0.804513 4.188596,-2.367766 6.635948,-2.367766 11.045695,0 18.490566,-5.234628 18.490566,-16.280323 0,-8.908985 -4.315651,-14.4628397 -12.364894,-17.0498561 C 29.500336,6.9609353 29.518772,4.7684626 29.210819,4.6855847 27.549462,4.2384706 25.80258,4 24,4 Z"/>
 <path style="opacity:0.2" d="M 29.072266 5.6660156 C 25.842499 7.4910066 17.332529 12.736414 18 17.355469 C 18.923645 23.747302 32.606268 22.665822 33 27.667969 C 33.479745 33.762856 23.658363 39.895282 17.818359 42.996094 A 20 20 0 0 0 24 44 A 20 20 0 0 0 43.978516 24.585938 A 20 20 0 0 0 29.072266 5.6660156 z"/>
 <path style="fill:#b2bfd9" d="M 29.072266 4.6660156 C 25.842499 6.4910066 17.332529 11.736414 18 16.355469 C 18.923645 22.747302 32.606268 21.665822 33 26.667969 C 33.511152 33.161866 22.267567 39.744656 16.673828 42.605469 A 20 20 0 0 0 24 44 A 20 20 0 0 0 44 24 A 20 20 0 0 0 29.072266 4.6660156 z"/>
 <path style="opacity:0.2" d="M 6.7070312,15 A 20,20 0 0 0 4.9453125,19 L 8,19 8,31 4.9257812,31 a 20,20 0 0 0 1.7753907,4 L 8,35 l 4,0 10,0 4,0 10,0 4,0 1.292969,0 a 20,20 0 0 0 1.761719,-4 L 40,31 40,19 43.074219,19 A 20,20 0 0 0 41.298828,15 L 6.7070312,15 Z M 7,16 l 2,0 0,2 -2,0 0,-2 z m 4,0 2,0 0,2 -2,0 0,-2 z m 4,0 2,0 0,2 -2,0 0,-2 z m 4,0 2,0 0,2 -2,0 0,-2 z m 4,0 2,0 0,2 -2,0 0,-2 z m 4,0 2,0 0,2 -2,0 0,-2 z m 4,0 2,0 0,2 -2,0 0,-2 z m 4,0 2,0 0,2 -2,0 0,-2 z m 4,0 2,0 0,2 -2,0 0,-2 z m -27,3 10,0 0,12 -10,0 0,-12 z m 14,0 10,0 0,12 -10,0 0,-12 z m -19,13 2,0 0,2 -2,0 0,-2 z m 4,0 2,0 0,2 -2,0 0,-2 z m 4,0 2,0 0,2 -2,0 0,-2 z m 4,0 2,0 0,2 -2,0 0,-2 z m 4,0 2,0 0,2 -2,0 0,-2 z m 4,0 2,0 0,2 -2,0 0,-2 z m 4,0 2,0 0,2 -2,0 0,-2 z m 4,0 2,0 0,2 -2,0 0,-2 z m 4,0 2,0 0,2 -2,0 0,-2 z"/>
 <path style="fill:#3c3c3c" d="M 6.7070312 14 A 20 20 0 0 0 4.9453125 18 L 8 18 L 8 30 L 4.9257812 30 A 20 20 0 0 0 6.7011719 34 L 8 34 L 12 34 L 22 34 L 26 34 L 36 34 L 40 34 L 41.292969 34 A 20 20 0 0 0 43.054688 30 L 40 30 L 40 18 L 43.074219 18 A 20 20 0 0 0 41.298828 14 L 6.7070312 14 z M 7 15 L 9 15 L 9 17 L 7 17 L 7 15 z M 11 15 L 13 15 L 13 17 L 11 17 L 11 15 z M 15 15 L 17 15 L 17 17 L 15 17 L 15 15 z M 19 15 L 21 15 L 21 17 L 19 17 L 19 15 z M 23 15 L 25 15 L 25 17 L 23 17 L 23 15 z M 27 15 L 29 15 L 29 17 L 27 17 L 27 15 z M 31 15 L 33 15 L 33 17 L 31 17 L 31 15 z M 35 15 L 37 15 L 37 17 L 35 17 L 35 15 z M 39 15 L 41 15 L 41 17 L 39 17 L 39 15 z M 12 18 L 22 18 L 22 30 L 12 30 L 12 18 z M 26 18 L 36 18 L 36 30 L 26 30 L 26 18 z M 7 31 L 9 31 L 9 33 L 7 33 L 7 31 z M 11 31 L 13 31 L 13 33 L 11 33 L 11 31 z M 15 31 L 17 31 L 17 33 L 15 33 L 15 31 z M 19 31 L 21 31 L 21 33 L 19 33 L 19 31 z M 23 31 L 25 31 L 25 33 L 23 33 L 23 31 z M 27 31 L 29 31 L 29 33 L 27 33 L 27 31 z M 31 31 L 33 31 L 33 33 L 31 33 L 31 31 z M 35 31 L 37 31 L 37 33 L 35 33 L 35 31 z M 39 31 L 41 31 L 41 33 L 39 33 L 39 31 z"/>
 <path fill="#fff" style="opacity:0.1" d="m24 4a20 20 0 0 0 -19.859 17.852 20 19 0 0 1 19.859 -16.852 20 19 0 0 1 19.922 17.447 20 20 0 0 0 -19.922 -18.447zm19.922 18.447a20 20 0 0 1 0.078 1.553 20 19 0 0 0 -0.078 -1.553zm-39.781-0.595a20 19 0 0 0 -0.0488 0.392 20 20 0 0 1 0.0488 -0.392zm-0.0488 0.392a20 20 0 0 0 -0.0918 1.756 20 19 0 0 1 0.0918 -1.756z"/>
</svg>

<svg xmlns="http://www.w3.org/2000/svg" width="48" height="48"><path style="opacity:.2" d="M24 5A20 20 0 0 0 4 25a20 20 0 0 0 20 20 20 20 0 0 0 20-20A20 20 0 0 0 24 5z"/><path style="fill:#3168b2" d="M24 4C12.954 4 4 12.954 4 24c0 8.598 5.426 15.93 13.04 18.756 2.168.804 4.19-2.368 6.637-2.368 11.045 0 18.49-5.234 18.49-16.28 0-8.91-4.316-14.463-12.365-17.05-.302-.097-.283-2.29-.591-2.372A20.026 20.026 0 0 0 24 4z"/><path style="opacity:.2" d="M29.072 5.666c-3.23 1.825-11.74 7.07-11.072 11.69.924 6.391 14.606 5.31 15 10.312.48 6.095-9.342 12.227-15.182 15.328A20 20 0 0 0 24 44a20 20 0 0 0 19.979-19.414 20 20 0 0 0-14.907-18.92z"/><path style="fill:#b2bfd9" d="M29.072 4.666c-3.23 1.825-11.74 7.07-11.072 11.69.924 6.391 14.606 5.31 15 10.312.511 6.494-10.732 13.077-16.326 15.937A20 20 0 0 0 24 44a20 20 0 0 0 20-20A20 20 0 0 0 29.072 4.666z"/><path style="opacity:.2" d="M6.707 15a20 20 0 0 0-1.762 4H8v12H4.926A20 20 0 0 0 6.7 35h34.592a20 20 0 0 0 1.762-4H40V19h3.074a20 20 0 0 0-1.775-4H6.707zM7 16h2v2H7v-2zm4 0h2v2h-2v-2zm4 0h2v2h-2v-2zm4 0h2v2h-2v-2zm4 0h2v2h-2v-2zm4 0h2v2h-2v-2zm4 0h2v2h-2v-2zm4 0h2v2h-2v-2zm4 0h2v2h-2v-2zm-27 3h10v12H12V19zm14 0h10v12H26V19zM7 32h2v2H7v-2zm4 0h2v2h-2v-2zm4 0h2v2h-2v-2zm4 0h2v2h-2v-2zm4 0h2v2h-2v-2zm4 0h2v2h-2v-2zm4 0h2v2h-2v-2zm4 0h2v2h-2v-2zm4 0h2v2h-2v-2z"/><path style="fill:#3c3c3c" d="M6.707 14a20 20 0 0 0-1.762 4H8v12H4.926A20 20 0 0 0 6.7 34h34.592a20 20 0 0 0 1.762-4H40V18h3.074a20 20 0 0 0-1.775-4H6.707zM7 15h2v2H7v-2zm4 0h2v2h-2v-2zm4 0h2v2h-2v-2zm4 0h2v2h-2v-2zm4 0h2v2h-2v-2zm4 0h2v2h-2v-2zm4 0h2v2h-2v-2zm4 0h2v2h-2v-2zm4 0h2v2h-2v-2zm-27 3h10v12H12V18zm14 0h10v12H26V18zM7 31h2v2H7v-2zm4 0h2v2h-2v-2zm4 0h2v2h-2v-2zm4 0h2v2h-2v-2zm4 0h2v2h-2v-2zm4 0h2v2h-2v-2zm4 0h2v2h-2v-2zm4 0h2v2h-2v-2zm4 0h2v2h-2v-2z"/><path fill="#fff" style="opacity:.1" d="M24 4A20 20 0 0 0 4.141 21.852 20 19 0 0 1 24 5a20 19 0 0 1 19.922 17.447A20 20 0 0 0 24 4zm19.922 18.447A20 20 0 0 1 44 24a20 19 0 0 0-.078-1.553zm-39.781-.595a20 19 0 0 0-.049.392 20 20 0 0 1 .049-.392zm-.049.392A20 20 0 0 0 4 24a20 19 0 0 1 .092-1.756z"/></svg>
